Catalina-dark/actions/16/mail-invitation.svg

<?xml version="1.0" encoding="UTF-8" standalone="no"?>
<svg
   xmlns:dc="http://purl.org/dc/elements/1.1/"
   xmlns:cc="http://creativecommons.org/ns#"
   xmlns:rdf="http://www.w3.org/1999/02/22-rdf-syntax-ns#"
   xmlns:svg="http://www.w3.org/2000/svg"
   xmlns="http://www.w3.org/2000/svg"
   xmlns:sodipodi="http://sodipodi.sourceforge.net/DTD/sodipodi-0.dtd"
   xmlns:inkscape="http://www.inkscape.org/namespaces/inkscape"
   width="16"
   height="16"
   viewBox="0 0 16 16"
   version="1.1"
   id="svg7"
   sodipodi:docname="mail-invitation.svg"
   inkscape:version="0.92.4 5da689c313, 2019-01-14">
  <metadata
     id="metadata11">
    <rdf:RDF>
      <cc:Work
         rdf:about="">
        <dc:format>image/svg+xml</dc:format>
        <dc:type
           rdf:resource="http://purl.org/dc/dcmitype/StillImage" />
      </cc:Work>
    </rdf:RDF>
  </metadata>
  <sodipodi:namedview
     pagecolor="#ffffff"
     bordercolor="#666666"
     borderopacity="1"
     objecttolerance="10"
     gridtolerance="10"
     guidetolerance="10"
     inkscape:pageopacity="0"
     inkscape:pageshadow="2"
     inkscape:window-width="640"
     inkscape:window-height="480"
     id="namedview9"
     showgrid="false"
     inkscape:zoom="14.75"
     inkscape:cx="6.8135593"
     inkscape:cy="8"
     inkscape:window-x="0"
     inkscape:window-y="26"
     inkscape:window-maximized="0"
     inkscape:current-layer="svg7" />
  <defs
     id="defs3">
    <style
       id="current-color-scheme"
       type="text/css">
   .ColorScheme-Text { color:#5c616c; } .ColorScheme-Highlight { color:#5294e2; }
  </style>
  </defs>
  <path
     style="fill:#f1f6f8;fill-opacity:0.8509804"
     class="ColorScheme-Text"
     d="M 2 2.0039062 C 0.892 2.0039062 0 2.8959063 0 4.0039062 L 0 12.003906 C 0 13.111906 0.892 14.003906 2 14.003906 L 14 14.003906 C 15.108 14.003906 16 13.111906 16 12.003906 L 16 4.0039062 C 16 2.8959062 15.108 2.0039062 14 2.0039062 L 2 2.0039062 z M 8 4 C 9.1046 4 10 4.8955 10 6 C 10 7.1045 9.1046 8 8 8 C 6.8954 8 6 7.1045 6 6 C 6 4.8955 6.8954 4 8 4 z M 8 9 C 12 8.9982 12 11.400391 12 11.400391 L 12 12 L 4 12 L 4 11.400391 C 4 11.400391 3.9998 9.002 8 9 z"
     id="path5" />
</svg>

<svg width="16" height="16" version="1.1" viewBox="0 0 16 16" xmlns="http://www.w3.org/2000/svg">
<defs>
<style id="current-color-scheme" type="text/css">.ColorScheme-Text { color:#5c616c; } .ColorScheme-Highlight { color:#5294e2; }</style>
</defs>
<path class="ColorScheme-Text" d="m2 2.0039c-1.108 0-2 0.892-2 2v8c0 1.108 0.892 2 2 2h12c1.108 0 2-0.892 2-2v-8c0-1.108-0.892-2-2-2h-12zm6 1.9961c1.1046 0 2 0.8955 2 2s-0.8954 2-2 2-2-0.8955-2-2 0.8954-2 2-2zm0 5c4-0.0018 4 2.4004 4 2.4004v0.59961h-8v-0.59961s-2e-4 -2.3984 4-2.4004z" fill="#f1f6f8" fill-opacity=".85098"/>
</svg>
